X: 35874
T: Sandpipers
R: reel
M: 4/4
K: Gmajor
|:BDGB AGBd|GAAG ABcB|FGGE GABG|~F3 G (3GAB cA|
BDGB AGBd|GAAG ABcB|FGGE GABG|1 FAGF c2 Bc:|2 FAGF B2 Bd||
|:e2 ed efge|cBBA AG (3ABd|A2 Bd AGdA|~F3 A FGBd|
e2 ed efge|cBBA AG (3ABd|A2 Bd AGdA|1 F2 dF G2 Bd:|2 F2 AF G4||

